X:113
U: ~ = !turn!
%%topmargin 3cm
T:Lark in the Morning
B:Traditional Irish Fiddle Tunes. Randy Miller and Jack Perron.
Z:Transcribed by Ralph Palmer
R:Jig
M:6/8
L:1/8
K:Bm
B |:AFA AFA | BGB BdB | AFA AFA | fed B{/c}dB |
AFA AFA | BGB BGB | def afe | fed BdB ::
def afa | baf afe | def afe | fed BAB |
def afa | baf a2 f | gbg faf | edB BAB ::
dff fdf | fdf fed | dff fdf | edB BAB |
dff fdf | fdf fed | faf gfe | edB BAB ::
ABd fed | ede fed | ABd fed | edB BAB |
ABd fed | efe fed | faf gfe | [1edB BAB :|] [2edB B2 |]
